!!!SOCIAL_FUNCTION:	songs of the kicking-ball race
!!!PDT:	1929
!!!OTL: No_148_We_Must_Run.krn
!!!REG: Southwest
!!!LANG: Non-Tone
!!!LING_GROUP: Uto-Aztecan
**kern
*staff1
=1-
*clefF4
*k[f#c#g#]
*M2/4
4E\
8.E\L
16E\Jk
=2
4c#\
4B\
=3||
*M3/4
2A\
4E\
=4||
*M2/4
4B\
8.B\L
16B\Jk
=5
4B\
8.A\L
16F#\Jk
=6
4.A\
8F#\
=7
16A\LK
8.A\J
8.A\L
16F#\Jk
=8
4E\
4D\
=9||
*M3/4
(2D\
8BB/)
8r
=10||
*M2/4
4D\
8.BB/L
16E/Jk
=11
8E\L
8E\J
8.BB/L
16E/Jk
=12
4E\
16E\LK
8.E\J
=13||
*M3/4
2E\
4r
=14||
*M2/4
8.A\L
16A\Jk
8.F#\L
16B\Jk
=15
8B\L
8B\J
8.F#\L
16B\Jk
=16
4B\
8.B\L
16B\Jk
=17||
*M3/4
8.A\L
16A\Jk
4A\
8.A\L
16F#\Jk
=18||
*M2/4
4A\
8.A\L
16F#\Jk
=19
8.E\L
16E\Jk
4D\
=20||
*M3/4
2D\
8BB/
8r
=21||
*M2/4
4.A\
8A\
=22
4A\
8.E\L
16E\Jk
=23
4BB/
8.E\L
16E\Jk
=24
4E\
4D\
=25
12E\L
12E\
12E\J
4E\
=26||
*M3/4
2E\
4r
=27||
*M2/4
8A\L
8A\J
8.F#\L
16B\Jk
=28
16B\LK
8.B\J
8.F#\L
16B\Jk
=29
4B\
8.B\L
16B\Jk
=30
4A\
8.A\L
16A\Jk
=31
4A\
8.G#\L
16F#\Jk
=32
4E\
16D\LK
8.D\J
=33||
*M3/4
2D\
8BB/
8r
=34||
*M2/4
4D\
8.BB/L
16E/Jk
=35
8E\L
8E\J
8.D\L
16E\Jk
=36
12E\L
12E\
12E\J
8E\L
8E\J
=37
2E\
==
*-
